X: 92
T: Panis angelicus
C: Gaspar van Weerbeke
%%abc-version 2.0
%%abcx-abcm2ps-target-version 5.9.1 (29 Sep 2008)
%%abc-creator hum2abc beta
%%abcx-conversion-date 2022/03/06 13:05:59
%%abc-copyright Copyright 2008, Pavanello, Agnese
%%abc-edited-by Mair-Gruber, Roland
%%humdrum-veritas 2446726493
%%humdrum-veritas-data 2656295199
%%linebreak <none>
%%barnumbers 0
L: 1/4
M: 2/2
N: Derived from Gas0416-Panis_angelicus.krn
%%staves [1 2 3 4]
V: 1 clef=treble
V: 2 clef=treble-8
V: 3 clef=treble-8
V: 4 clef=bass
K: C
[V:1] c4 | 
[V:2] g4 | 
[V:3] c4 | 
[V:4] C4 | 
[V:1] c4 | 
[V:2] g4 | 
[V:3] e4 | 
[V:4] C4 | 
[V:1] c2B2 | 
[V:2] c2d2 | 
[V:3] f2g2 | 
[V:4] A,2G,2 | 
[V:1] c2A2 | 
[V:2] g2d2 | 
[V:3] e2f2 | 
[V:4] C,2D,2 | 
[V:1] B4 | 
[V:2] d4 | 
[V:3] g4 | 
[V:4] G,4 | 
[V:1] !fermata!B4 | 
[V:2] !fermata!g4 | 
[V:3] !fermata!d4 | 
[V:4] !fermata!G,4 | 
[V:1] c4 | 
[V:2] g4 | 
[V:3] e4 | 
[V:4] C,4 | 
[V:1] B4 | 
[V:2] g4 | 
[V:3] d4 | 
[V:4] G,4 | 
[V:1] c2A2 | 
[V:2] e2c2 | 
[V:3] c4 | 
[V:4] A,4 | 
[V:1] c>BA3/G/ | 
[V:2] A2A2 | 
[V:3] c2d2 | 
[V:4] F,2F,2 | 
[V:1] !fermata!G4 | 
[V:2] !fermata!B4 | 
[V:3] !fermata!e4 | 
[V:4] !fermata!E,4 | 
[V:1] z2G2 | 
[V:2] z2G2 | 
[V:3] z2B2 | 
[V:4] z2E,2 | 
[V:1] G4 | 
[V:2] G4 | 
[V:3] B4 | 
[V:4] E,4 | 
[V:1] E2F2- | 
[V:2] G2A2- | 
[V:3] c2d2- | 
[V:4] E,2D,2- | 
[V:1] F2F2 | 
[V:2] A2A2 | 
[V:3] d2d2 | 
[V:4] D,2D,2 | 
[V:1] !fermata!G4 | 
[V:2] !fermata!G4 | 
[V:3] !fermata!B4 | 
[V:4] !fermata!E,4 | 
[V:1] z2G2 | 
[V:2] z2e2 | 
[V:3] z2G2 | 
[V:4] z2C,2 | 
[V:1] G2c2 | 
[V:2] e4 | 
[V:3] G4 | 
[V:4] C,4 | 
[V:1] c2d2- | 
[V:2] e2d2- | 
[V:3] A2B2- | 
[V:4] C,2B,,2- | 
[V:1] d2d2 | 
[V:2] d2d2 | 
[V:3] B2B2 | 
[V:4] B,,2B,,2 | 
[V:1] !fermata!e4 | 
[V:2] !fermata!c4 | 
[V:3] !fermata!G4 | 
[V:4] !fermata!C,4 | 
[V:1] e2e2 | 
[V:2] g2g2 | 
[V:3] z4 | 
[V:4] z4 | 
[V:1] e2e2- | 
[V:2] g2g2- | 
[V:3] z4 | 
[V:4] z4 | 
[V:1] edc2 | 
[V:2] gfe2 | 
[V:3] z4 | 
[V:4] z4 | 
[V:1] B2e2 | 
[V:2] d2g2 | 
[V:3] z4 | 
[V:4] z4 | 
[V:1] d2c2- | 
[V:2] f2e2 | 
[V:3] z4 | 
[V:4] z4 | 
[V:1] c2B2 | 
[V:2] d4 | 
[V:3] z4 | 
[V:4] z4 | 
[V:1] c2z2 | 
[V:2] c2z2 | 
[V:3] z4 | 
[V:4] z4 | 
[V:1] c4 | 
[V:2] g4 | 
[V:3] e4 | 
[V:4] C,4 | 
[V:1] B4 | 
[V:2] g4 | 
[V:3] d4 | 
[V:4] G,4 | 
[V:1] A4 | 
[V:2] e4 | 
[V:3] c4 | 
[V:4] A,4 | 
[V:1] G4 | 
[V:2] e4 | 
[V:3] B4 | 
[V:4] E,4 | 
[V:1] A4 | 
[V:2] c4 | 
[V:3] A4 | 
[V:4] F,4 | 
[V:1] G4 | 
[V:2] e4 | 
[V:3] c4 | 
[V:4] C,4 | 
[V:1] F4 | 
[V:2] d4 | 
[V:3] A4 | 
[V:4] D,4 | 
[V:1] !fermata!G4 ||  
[V:2] !fermata!d4 ||  
[V:3] !fermata!B4 ||  
[V:4] !fermata!G,4 ||  
[V:1] [M:3/2]z6 | 
[V:2] [M:3/2]d2d2d2 | 
[V:3] [M:3/2]z6 | 
[V:4] [M:3/2]G,2G,2G,2 | 
[V:1] z6 | 
[V:2] e4f2 | 
[V:3] z6 | 
[V:4] C4D2 | 
[V:1] z6 | 
[V:2] g3f/e/d2 | 
[V:3] G2G2G2 | 
[V:4] E2D3C/B,/ | 
[V:1] z6 | 
[V:2] e2c2A2 | 
[V:3] c4d2 | 
[V:4] A,2>G,2F,2 | 
[V:1] G2G2G2 | 
[V:2] B2G2g2 | 
[V:3] e2>d2cB | 
[V:4] E,4G,2 | 
[V:1] c4d2 | 
[V:2] a2>g2f2 | 
[V:3] A4B2 | 
[V:4] F,2>E,2D,2 | 
[V:1] e2>d2cB | 
[V:2] e4z2 | 
[V:3] c2>d2e2 | 
[V:4] C,2CB,A,G, | 
[V:1] AG2<d2c | 
[V:2] c2d2B2 | 
[V:3] f4g2 | 
[V:4] F,2D,2E,2 | 
[V:1] c4B2 | 
[V:2] c2G2g2 | 
[V:3] e2d4 | 
[V:4] C,2G,4 | 
[V:1] c6 |]  
[V:2] g6 |]  
[V:3] c6 |]  
[V:4] C,6 |]  


